build/category/FlashLightSolid.svg

<svg xmlns="http://www.w3.org/2000/svg" fill="none" viewBox="0 0 24 24" focusable="false"><path d="M0 0H24V24H0z"/><path fill="#74767B" fill-rule="evenodd" d="M7.18862 3.24433C6.97836 2.95336 6.57204 2.88792 6.28107 3.09817C5.9901 3.30843 5.92466 3.71475 6.13492 4.00572L7.94351 6.50865C8.15376 6.79962 8.56009 6.86506 8.85106 6.6548C9.14203 6.44455 9.20746 6.03823 8.99721 5.74726L7.18862 3.24433ZM17.7192 3.09817C17.4282 2.88792 17.0219 2.95336 16.8117 3.24433L15.0031 5.74726C14.7928 6.03823 14.8583 6.44455 15.1492 6.6548C15.4402 6.86506 15.8465 6.79962 16.0568 6.50865L17.8654 4.00572C18.0756 3.71475 18.0102 3.30843 17.7192 3.09817ZM12.6501 3.62502C12.6501 3.26604 12.3591 2.97502 12.0001 2.97502C11.6412 2.97502 11.3501 3.26604 11.3501 3.62502L11.3501 6.12795C11.3501 6.48694 11.6412 6.77795 12.0001 6.77795C12.3591 6.77795 12.6501 6.48694 12.6501 6.12795L12.6501 3.62502ZM7.61918 8.0303C6.99657 8.0303 6.49195 8.53523 6.49233 9.15784C6.49247 9.38644 6.5458 9.61188 6.64809 9.81632L7.41641 11.3518C7.53502 11.5889 7.77735 11.7386 8.04242 11.7386L15.462 11.7386C15.727 11.7386 15.9692 11.589 16.0879 11.3521L16.8566 9.81742C16.9593 9.61228 17.0127 9.38597 17.0126 9.15653C17.0122 8.53442 16.5078 8.0303 15.8857 8.0303L7.61918 8.0303ZM14.5452 13.0386C14.9318 13.0386 15.2452 13.352 15.2452 13.7386L15.2452 18C15.2452 19.6569 13.902 21 12.2452 21L11.2617 21C9.6048 21 8.26166 19.6569 8.26166 18L8.26166 13.7386C8.26166 13.352 8.57506 13.0386 8.96166 13.0386L14.5452 13.0386ZM11.7531 16.499C12.3054 16.499 12.7531 16.0513 12.7531 15.499C12.7531 14.9468 12.3054 14.499 11.7531 14.499C11.2008 14.499 10.7531 14.9468 10.7531 15.499C10.7531 16.0513 11.2008 16.499 11.7531 16.499Z"/></svg>

<svg xmlns="http://www.w3.org/2000/svg" fill="none" viewBox="0 0 24 24" focusable="false"><path fill="#74767B" fill-rule="evenodd" d="M6.28 3.09c.29-.21.69-.14.9.15l1.81 2.5c.21.29.15.7-.14.91s-.7.14-.91-.15L6.13 4c-.21-.29-.15-.7.15-.91m11.43 0a.643.643 0 0 0-.9.15L15 5.74c-.21.29-.15.7.14.91.3.21.7.14.91-.15L17.86 4c.21-.29.15-.7-.15-.91m-5.06.53c0-.36-.3-.65-.65-.65-.36 0-.65.29-.65.65v2.5c0 .36.29.65.65.65.35 0 .65-.29.65-.65zM7.61 8.03c-.62 0-1.12.5-1.12 1.12 0 .23.05.46.15.66l.77 1.54c.12.23.36.38.63.38h7.42c.26 0 .5-.15.62-.38l.77-1.54c.1-.2.16-.43.16-.66 0-.62-.51-1.12-1.13-1.12zm6.93 5c.39 0 .7.32.7.7V18c0 1.65-1.34 3-3 3h-.98c-1.66 0-3-1.35-3-3v-4.27c0-.38.31-.7.7-.7zm-2.79 3.46c.55 0 1-.44 1-1 0-.55-.45-1-1-1s-1 .45-1 1c0 .56.45 1 1 1"/></svg>
